icon_installer/data/icons/scalable/actions/show-sentiment-dissatisfied-symbolic.svg

<?xml version="1.0" encoding="UTF-8"?>
<svg height="16px" viewBox="0 0 16 16" width="16px" xmlns="http://www.w3.org/2000/svg">
    <path d="m 8 0 c -4.402344 0 -8 3.597656 -8 8 s 3.597656 8 8 8 s 8 -3.597656 8 -8 s -3.597656 -8 -8 -8 z m 0 1.980469 c 3.339844 0 6.019531 2.679687 6.019531 6.019531 s -2.679687 6.019531 -6.019531 6.019531 s -6.019531 -2.679687 -6.019531 -6.019531 s 2.679687 -6.019531 6.019531 -6.019531 z m -2 3.019531 c -0.550781 0 -1 0.449219 -1 1 s 0.449219 1 1 1 s 1 -0.449219 1 -1 s -0.449219 -1 -1 -1 z m 4 0 c -0.550781 0 -1 0.449219 -1 1 s 0.449219 1 1 1 s 1 -0.449219 1 -1 s -0.449219 -1 -1 -1 z m -2 4 c -1.429688 0 -2.75 0.761719 -3.464844 2 c -0.066406 0.113281 -0.085937 0.25 -0.050781 0.378906 s 0.121094 0.238282 0.234375 0.304688 s 0.25 0.085937 0.378906 0.050781 s 0.238282 -0.121094 0.304688 -0.234375 c 0.535156 -0.929688 1.523437 -1.5 2.597656 -1.5 s 2.0625 0.570312 2.597656 1.5 c 0.066406 0.113281 0.175782 0.199219 0.304688 0.234375 s 0.265625 0.015625 0.378906 -0.050781 s 0.199219 -0.175782 0.234375 -0.304688 s 0.015625 -0.265625 -0.050781 -0.378906 c -0.714844 -1.238281 -2.035156 -2 -3.464844 -2 z m 0 0" fill="#222222"/>
</svg>

<svg xmlns="http://www.w3.org/2000/svg" width="16" height="16"><path fill="#222" d="M8 0C3.598 0 0 3.598 0 8s3.598 8 8 8 8-3.598 8-8-3.598-8-8-8zm0 1.98c3.34 0 6.02 2.68 6.02 6.02S11.34 14.02 8 14.02 1.98 11.34 1.98 8 4.66 1.98 8 1.98zM6 5c-.55 0-1 .45-1 1s.45 1 1 1 1-.45 1-1-.45-1-1-1zm4 0c-.55 0-1 .45-1 1s.45 1 1 1 1-.45 1-1-.45-1-1-1zM8 9a4 4 0 0 0-3.465 2c-.066.113-.086.25-.05.379s.12.238.234.305.25.086.379.05.238-.12.304-.234C5.938 10.57 6.926 10 8 10s2.063.57 2.598 1.5a.499.499 0 0 0 .684.184c.113-.067.198-.176.234-.305s.015-.266-.051-.379A4 4 0 0 0 8 9zm0 0"/></svg>
